X: 1246
T: Ben Bolt
C:J.P.Sousa (1854-1932)
B: australian traditional tunes wiki
M:4/4
L:1/8
R: March
Q: 1/4=100
K:G
V:1 
d>c|"G"[G2B2][GB]>[GB][G2B2]Bd|"D"!uppermordent!fe de [A2D2](Bc)|"G"(ed) (dB) "D7"(d^c) =cA|"G"[G4B4]z2d>c|
|"G"[G2B2][GB]>[GB][G2B2]Bd|"D"!uppermordent!fe de [A2D2](Bc)|"G"(ed) (dB) "D7"(d^c) =cA|"G"[G4B4]z2FG|
"D"[A2D2][dD]>[Dd][D2d2]f/a/f/e/|[d2D2][DA]>[DA][A2D2] ^cd|"A7"!slide!e2eA ^cA fe|"D"d2d>ed2dc|
|"G"[G2B2][GB]>[GB][G2B2]Bd|"D"fe de [A2D2](Bc)|"G"(ed) (dB) "D7"(d^c) =cA|"G"[G4B4]z4||
% abcbook-tune_id 6342d53acfbab89a3dab39fb


% abcbook-boost 0
% abcbook-tablature 
% abcbook-transpose 
% abcbook-lastupdated 1665324355812
% abcbook-soundfonts 
% abcbook-repeats 1
% NFF Book 2020
% Bush Traditions recording played by Greg O'Leary

